X:1008
T:Voyageur, Le
T:Reel Des Voyageurs
R:reel
O:Quebec
Z:id:hn-reel-1008
M:C|
L:1/8
K:A
A2cA eAcA | EAce dAcA | EAce fefg |1 a2ed ceBG :|2 a2ed cefg ||
|: agae agae | f2ed cefg |1 a2g2 f2ed | f2ed cefg :|2 a2c2 f2ed |[M:3/2] f2ed c2B2 B3G ||

